resources/svg/book-read-line.svg

<svg fill="currentColor" viewBox="0 0 24 24" xmlns="http://www.w3.org/2000/svg"><path d="M2 3.9934C2 3.44476 2.45531 3 2.9918 3H21.0082C21.556 3 22 3.44495 22 3.9934V20.0066C22 20.5552 21.5447 21 21.0082 21H2.9918C2.44405 21 2 20.5551 2 20.0066V3.9934ZM11 5H4V19H11V5ZM13 5V19H20V5H13ZM14 7H19V9H14V7ZM14 10H19V12H14V10Z"/></svg>

<svg xmlns="http://www.w3.org/2000/svg" viewBox="0 0 24 24" fill="currentColor">
    <g>
        <path fill="none" d="M0 0h24v24H0z"/>
        <path d="M2 3.993A1 1 0 0 1 2.992 3h18.016c.548 0 .992.445.992.993v16.014a1 1 0 0 1-.992.993H2.992A.993.993 0 0 1 2 20.007V3.993zM11 5H4v14h7V5zm2 0v14h7V5h-7zm1 2h5v2h-5V7zm0 3h5v2h-5v-2z"/>
    </g>
</svg>
